assets/images/edit-2.svg

<svg width="15" height="15" viewBox="0 0 15 15" fill="none" xmlns="http://www.w3.org/2000/svg">
<path d="M8.28759 2.25001L3.15634 7.68126C2.96259 7.88751 2.77509 8.29376 2.73759 8.57501L2.50634 10.6C2.42509 11.3313 2.95009 11.8313 3.67509 11.7063L5.68759 11.3625C5.96884 11.3125 6.36259 11.1063 6.55634 10.8938L11.6876 5.46251C12.5751 4.52501 12.9751 3.45626 11.5938 2.15001C10.2188 0.856263 9.17509 1.31251 8.28759 2.25001Z" stroke="#AAAAAA" stroke-miterlimit="10" stroke-linecap="round" stroke-linejoin="round"/>
<path d="M7.43115 3.15625C7.6999 4.88125 9.0999 6.2 10.8374 6.375" stroke="#AAAAAA" stroke-miterlimit="10" stroke-linecap="round" stroke-linejoin="round"/>
<path d="M1.875 13.75H13.125" stroke="#AAAAAA" stroke-miterlimit="10" stroke-linecap="round" stroke-linejoin="round"/>
</svg>

<svg xmlns="http://www.w3.org/2000/svg" width="15" height="15" fill="none"><path stroke="#AAA" stroke-linecap="round" stroke-linejoin="round" stroke-miterlimit="10" d="M8.288 2.25 3.156 7.681a1.9 1.9 0 0 0-.418.894L2.506 10.6c-.08.731.444 1.231 1.17 1.106l2.012-.343c.28-.05.675-.257.868-.47l5.132-5.43c.887-.938 1.287-2.007-.094-3.313-1.375-1.294-2.419-.837-3.306.1"/><path stroke="#AAA" stroke-linecap="round" stroke-linejoin="round" stroke-miterlimit="10" d="M7.431 3.156a3.83 3.83 0 0 0 3.406 3.219M1.875 13.75h11.25"/></svg>
